images/Group 1.svg

<svg width="55" height="60" viewBox="0 0 55 60" fill="none" xmlns="http://www.w3.org/2000/svg">
<g id="Group 1">
<g id="Group">
<g id="Group_2">
<g id="Group_3">
<g id="Clip path group">
<mask id="mask0_13_2973" style="mask-type:luminance" maskUnits="userSpaceOnUse" x="0" y="17" width="26" height="28">
<g id="SVGID_2_">
<path id="Vector" d="M17.6158 19.3957C13.8812 17.5975 5.16707 15.1078 1.73982 22.2082C-1.10341 28.0944 -0.918987 40.2665 5.82793 43.5247C12.2521 46.6292 21.9806 39.8823 25.0697 33.4582C28.5584 26.2655 21.3658 21.2092 17.6158 19.3957Z" fill="white"/>
</g>
</mask>
<g mask="url(#mask0_13_2973)">
<path id="Vector_2" d="M28.5583 15.1074H-1.10352V46.6289H28.5583V15.1074Z" fill="url(#paint0_linear_13_2973)"/>
</g>
</g>
</g>
<g id="Group_4">
<g id="Clip path group_2">
<mask id="mask1_13_2973" style="mask-type:luminance" maskUnits="userSpaceOnUse" x="0" y="17" width="15" height="24">
<g id="SVGID_5_">
<path id="Vector_3" d="M8.82485 17.4897C6.01235 17.7049 3.32281 18.9344 1.73982 22.1926C-0.59624 27.0184 -0.888247 36.0553 2.7849 40.9579C9.53181 40.6967 14.9416 35.1331 14.9416 28.3248C14.9416 23.7295 12.4826 19.7182 8.82485 17.4897Z" fill="white"/>
</g>
</mask>
<g mask="url(#mask1_13_2973)">
<path id="Vector_4" d="M14.9417 17.4897H-0.888184V40.9579H14.9417V17.4897Z" fill="url(#paint1_linear_13_2973)"/>
</g>
</g>
</g>
<path id="Vector_5" fill-rule="evenodd" clip-rule="evenodd" d="M10.838 31.1373C10.3923 31.291 9.93121 31.7981 9.68531 32.4744C9.54699 32.8432 9.28572 33.75 9.80826 33.9344C10.3154 34.1188 10.715 33.2735 10.8533 32.9047C11.0992 32.2285 11.0839 31.5522 10.838 31.1373ZM14.8646 32.751C14.4343 32.9047 14.0193 33.3658 13.7888 33.9959C13.6658 34.334 13.4199 35.1947 13.8964 35.3637C14.3728 35.5481 14.7417 34.7336 14.88 34.3955C15.1105 33.7807 15.0798 33.1506 14.8646 32.751ZM20.0132 29.4313C19.5675 29.6004 19.1064 30.0922 18.8605 30.7684C18.7222 31.1373 18.4609 32.044 18.9834 32.2285C19.4906 32.4129 19.8902 31.5676 20.0285 31.1988C20.2744 30.5225 20.2437 29.8463 20.0132 29.4313ZM14.7724 27.4795C14.3267 27.6486 13.8656 28.1404 13.6197 28.8166C13.4814 29.1854 13.2201 30.0922 13.7427 30.2766C14.2498 30.4611 14.6494 29.6158 14.7878 29.2469C15.0337 28.5553 15.0183 27.8945 14.7724 27.4795ZM9.54699 25.5123C9.1013 25.666 8.64023 26.1732 8.39433 26.8494C8.25601 27.2182 7.99474 28.125 8.51728 28.3094C9.02445 28.4938 9.42404 27.6486 9.56236 27.2797C9.79289 26.6035 9.77752 25.9273 9.54699 25.5123ZM5.3513 24.1598C4.90561 24.3135 4.44454 24.8207 4.19864 25.4969C4.06032 25.8658 3.79905 26.7725 4.32159 26.957C4.82876 27.1414 5.22835 26.2961 5.36667 25.9273C5.61257 25.251 5.5972 24.5748 5.3513 24.1598ZM8.82466 20.9478C8.44044 21.0861 8.05622 21.5164 7.84105 22.1004C7.7181 22.4232 7.50294 23.1916 7.94863 23.3607C8.39433 23.5297 8.73244 22.792 8.84002 22.4693C9.03982 21.8853 9.02445 21.3012 8.82466 20.9478ZM14.6341 22.7305C14.173 22.8227 13.6505 23.2377 13.297 23.8525C13.1126 24.1906 12.713 25.0359 13.1894 25.3125C13.6658 25.5738 14.1884 24.8053 14.3728 24.4518C14.7263 23.8371 14.8031 23.1762 14.6341 22.7305ZM19.214 24.9436C18.8451 25.082 18.4763 25.4816 18.2765 26.0195C18.1689 26.3115 17.9537 27.0492 18.3687 27.2029C18.7837 27.3566 19.1064 26.665 19.214 26.3576C19.4291 25.835 19.4138 25.2818 19.214 24.9436ZM5.07466 35.1947C4.65971 35.3483 4.24475 35.794 4.01422 36.4242C3.89127 36.7623 3.66073 37.5922 4.1218 37.7612C4.59823 37.9303 4.95171 37.1465 5.07466 36.8084C5.32057 36.1936 5.28983 35.5789 5.07466 35.1947ZM8.96298 38.1608C8.54802 38.3145 8.13306 38.7602 7.90253 39.3903C7.77958 39.7285 7.53368 40.5584 8.01011 40.7274C8.48654 40.8965 8.84003 40.1127 8.96298 39.7746C9.19351 39.1598 9.17814 38.5451 8.96298 38.1608ZM6.25806 29.8309C5.84311 29.9846 5.42815 30.4303 5.19762 31.0604C5.07466 31.3986 4.82876 32.2285 5.3052 32.3975C5.78163 32.5666 6.13511 31.7828 6.25806 31.4447C6.4886 30.8299 6.47323 30.2152 6.25806 29.8309Z" fill="#E60000"/>
</g>
<g id="Group_5">
<g id="Group_6">
<g id="Clip path group_3">
<mask id="mask2_13_2973" style="mask-type:luminance" maskUnits="userSpaceOnUse" x="13" y="0" width="28" height="25">
<g id="SVGID_8_">
<path id="Vector_6" d="M13.4663 1.69057C17.1395 4.64138 21.0124 8.60654 23.5175 12.7407C26.8525 18.4887 25.7767 24.5286 25.7767 24.5286C27.8054 17.5666 32.9693 16.7366 36.9191 12.4026C39.2398 9.85141 40.9765 6.22437 40.915 1.09119C40.1927 0.230532 27.4212 0.153687 25.623 11.0502C24.0862 7.91494 21.6118 3.85757 17.8157 0C16.3249 0.430327 14.8649 0.998973 13.4663 1.69057Z" fill="white"/>
</g>
</mask>
<g mask="url(#mask2_13_2973)">
<path id="Vector_7" d="M27.2216 38.2837L53.241 12.2643L27.2216 -13.7551L1.20215 12.2643L27.2216 38.2837Z" fill="url(#paint2_linear_13_2973)"/>
</g>
</g>
</g>
<g id="Group_7">
<g id="Clip path group_4">
<mask id="mask3_13_2973" style="mask-type:luminance" maskUnits="userSpaceOnUse" x="25" y="1" width="16" height="24">
<g id="SVGID_11_">
<path id="Vector_8" d="M25.8532 20.21C26.0991 22.7459 25.7764 24.5287 25.7764 24.5287C27.8051 17.5666 32.969 16.7367 36.9188 12.4027C39.1011 9.98978 40.7763 6.62401 40.8993 1.93652C40.1769 3.75004 38.886 5.82484 36.596 7.4693C31.3706 11.2039 26.1452 15.6762 25.8532 20.21Z" fill="white"/>
</g>
</mask>
<g mask="url(#mask3_13_2973)">
<path id="Vector_9" d="M33.338 32.0901L52.1956 13.2325L33.338 -5.625L14.4805 13.2325L33.338 32.0901Z" fill="url(#paint3_linear_13_2973)"/>
</g>
</g>
</g>
<g id="Group_8">
<g id="Clip path group_5">
<mask id="mask4_13_2973" style="mask-type:luminance" maskUnits="userSpaceOnUse" x="8" y="6" width="17" height="18">
<g id="SVGID_14_">
<path id="Vector_10" d="M8.01025 6.40877C8.01025 6.40877 8.22542 14.7233 15.8945 17.1977C20.167 18.919 23.1793 20.963 24.6854 23.1147C23.6864 13.6014 19.4754 6.02455 8.01025 6.40877Z" fill="white"/>
</g>
</mask>
<g mask="url(#mask4_13_2973)">
<path id="Vector_11" d="M24.6854 6.02441H8.01025V23.1299H24.6854V6.02441Z" fill="url(#paint4_linear_13_2973)"/>
</g>
</g>
</g>
<g id="Group_9">
<g id="Clip path group_6">
<mask id="mask5_13_2973" style="mask-type:luminance" maskUnits="userSpaceOnUse" x="8" y="6" width="17" height="18">
<g id="SVGID_17_">
<path id="Vector_12" d="M8.01025 6.40877C8.01025 6.40877 8.04099 7.49996 8.44058 8.99073C8.44058 8.99073 21.75 8.91389 24.6854 23.1147C23.6864 13.6014 19.4754 6.02455 8.01025 6.40877Z" fill="white"/>
</g>
</mask>
<g mask="url(#mask5_13_2973)">
<path id="Vector_13" d="M28.9734 7.16185L9.13225 1.84424L3.73779 21.9774L23.5789 27.295L28.9734 7.16185Z" fill="url(#paint5_linear_13_2973)"/>
</g>
</g>
</g>
</g>
<g id="Group_10">
<g id="Group_11">
<g id="Clip path group_7">
<mask id="mask6_13_2973" style="mask-type:luminance" maskUnits="userSpaceOnUse" x="11" y="30" width="30" height="31">
<g id="SVGID_20_">
<path id="Vector_14" d="M25.7459 30.9224C33.7685 30.9224 40.2848 37.4234 40.2848 45.4613C40.2848 53.4838 33.7838 60.0002 25.7459 60.0002C17.7234 60.0002 11.207 53.4992 11.207 45.4613C11.207 37.4234 17.708 30.9224 25.7459 30.9224Z" fill="white"/>
</g>
</mask>
<g mask="url(#mask6_13_2973)">
<path id="Vector_15" d="M40.2848 30.9224H11.207V60.0002H40.2848V30.9224Z" fill="url(#paint6_linear_13_2973)"/>
</g>
</g>
</g>
<g id="Group_12">
<g id="Clip path group_8">
<mask id="mask7_13_2973" style="mask-type:luminance" maskUnits="userSpaceOnUse" x="21" y="31" width="20" height="29">
<g id="SVGID_23_">
<path id="Vector_16" d="M28.5892 31.1987C35.2592 32.5204 40.2695 38.4067 40.2695 45.461C40.2695 53.4835 33.7685 59.9999 25.7306 59.9999C24.1476 59.9999 22.6261 59.7386 21.1968 59.2776C30.5257 59.9845 38.0871 41.0655 28.5892 31.1987Z" fill="white"/>
</g>
</mask>
<g mask="url(#mask7_13_2973)">
<path id="Vector_17" d="M40.2695 31.1987H21.1968V59.9845H40.2695V31.1987Z" fill="url(#paint7_linear_13_2973)"/>
</g>
</g>
</g>
<g id="Group_13">
<g id="Clip path group_9">
<mask id="mask8_13_2973" style="mask-type:luminance" maskUnits="userSpaceOnUse" x="11" y="31" width="16" height="25">
<g id="SVGID_26_">
<path id="Vector_18" d="M15.3412 55.6198C12.7747 53.0071 11.207 49.4108 11.207 45.461C11.207 38.3298 16.3402 32.3975 23.1179 31.168C25.4539 33.8114 26.8832 37.2694 26.8832 41.0809C26.8832 48.1505 21.9652 54.0829 15.3412 55.6198Z" fill="white"/>
</g>
</mask>
<g mask="url(#mask8_13_2973)">
<path id="Vector_19" d="M26.8832 31.1523H11.207V55.6041H26.8832V31.1523Z" fill="url(#paint8_linear_13_2973)"/>
</g>
</g>
</g>
<path id="Vector_20" fill-rule="evenodd" clip-rule="evenodd" d="M25.1621 57.5101C19.5371 55.9579 15.3876 50.8093 15.3876 44.6771C15.3876 43.6013 15.5105 42.5562 15.7564 41.5573C16.3404 39.0983 17.616 36.9159 19.3527 35.1946C16.8783 36.7468 14.988 39.1597 14.1427 42.0337C13.8199 43.1095 13.6509 44.2622 13.6509 45.4456C13.6662 51.9312 18.7687 57.2181 25.1621 57.5101Z" fill="white"/>
</g>
<g id="Group_14">
<g id="Group_15">
<g id="Clip path group_10">
<mask id="mask9_13_2973" style="mask-type:luminance" maskUnits="userSpaceOnUse" x="27" y="15" width="28" height="43">
<g id="SVGID_29_">
<path id="Vector_21" d="M51.6424 45.5532C49.4139 50.8862 43.7736 59.7079 36.5041 56.2346C32.6158 54.3749 33.8607 50.6249 32.9232 47.2131C30.2951 37.6075 25.1619 34.0112 27.8054 24.9436C33.123 6.79306 63.9374 16.1834 51.6424 45.5532Z" fill="white"/>
</g>
</mask>
<g mask="url(#mask9_13_2973)">
<path id="Vector_22" d="M63.9376 6.79297H25.1621V59.7078H63.9376V6.79297Z" fill="url(#paint9_linear_13_2973)"/>
</g>
</g>
</g>
<g id="Group_16">
<g id="Clip path group_11">
<mask id="mask10_13_2973" style="mask-type:luminance" maskUnits="userSpaceOnUse" x="35" y="28" width="20" height="30">
<g id="SVGID_32_">
<path id="Vector_23" d="M51.6424 45.5531C49.414 50.886 43.7736 59.7077 36.5041 56.2344C36.2736 56.1268 36.0738 56.0039 35.874 55.8809C41.8218 55.9885 56.0072 42.5715 54.0553 28.2017C55.0389 32.8123 54.5471 38.6217 51.6424 45.5531Z" fill="white"/>
</g>
</mask>
<g mask="url(#mask10_13_2973)">
<path id="Vector_24" d="M55.992 28.2017H35.8589V59.7077H55.992V28.2017Z" fill="url(#paint10_linear_13_2973)"/>
</g>
</g>
</g>
<g id="Group_17">
<g id="Clip path group_12">
<mask id="mask11_13_2973" style="mask-type:luminance" maskUnits="userSpaceOnUse" x="27" y="15" width="18" height="27">
<g id="SVGID_35_">
<path id="Vector_25" d="M31.0328 41.8646C28.4815 35.8554 25.6998 32.1054 27.8053 24.9281C29.9416 17.628 36.2121 14.7847 42.1444 15.922C43.4508 18.4271 44.1731 21.2857 44.1731 24.3134C44.1885 32.6279 38.6403 39.6515 31.0328 41.8646Z" fill="white"/>
</g>
</mask>
<g mask="url(#mask11_13_2973)">
<path id="Vector_26" d="M44.1887 14.7852H25.7153V41.865H44.1887V14.7852Z" fill="url(#paint11_linear_13_2973)"/>
</g>
</g>
</g>
<path id="Vector_27" fill-rule="evenodd" clip-rule="evenodd" d="M35.3974 43.9552C35.3974 43.9552 29.3421 36.486 29.9107 28.3251C30.3103 22.6694 34.8441 22.0547 32.9845 28.6786C32.0624 31.9522 33.0152 37.1776 35.3974 43.9552Z" fill="white"/>
</g>
</g>
</g>
<defs>
<linearGradient id="paint0_linear_13_2973" x1="21.6923" y1="30.8708" x2="-2.98307" y2="30.8708" gradientUnits="userSpaceOnUse">
<stop stop-color="#FF0000"/>
<stop offset="1" stop-color="#F38288"/>
</linearGradient>
<linearGradient id="paint1_linear_13_2973" x1="21.7535" y1="29.2315" x2="2.15552" y2="29.2315" gradientUnits="userSpaceOnUse">
<stop stop-color="#FF0000"/>
<stop offset="1" stop-color="#F38288"/>
</linearGradient>
<linearGradient id="paint2_linear_13_2973" x1="25.5399" y1="13.9498" x2="41.9467" y2="-2.457" gradientUnits="userSpaceOnUse">
<stop stop-color="#4BBC39"/>
<stop offset="1" stop-color="#BEDE19"/>
</linearGradient>
<linearGradient id="paint3_linear_13_2973" x1="27.3191" y1="19.258" x2="43.8918" y2="2.6853" gradientUnits="userSpaceOnUse">
<stop stop-color="#3AA34E"/>
<stop offset="1" stop-color="#BEDE19"/>
</linearGradient>
<linearGradient id="paint4_linear_13_2973" x1="20.3713" y1="14.5706" x2="3.55298" y2="14.5706" gradientUnits="userSpaceOnUse">
<stop stop-color="#4BBC39"/>
<stop offset="1" stop-color="#BEDE19"/>
</linearGradient>
<linearGradient id="paint5_linear_13_2973" x1="24.2613" y1="16.6901" x2="4.31066" y2="11.3444" gradientUnits="userSpaceOnUse">
<stop stop-color="#3AA34E"/>
<stop offset="1" stop-color="#BEDE19"/>
</linearGradient>
<linearGradient id="paint6_linear_13_2973" x1="12.5431" y1="45.4558" x2="33.7789" y2="45.4558" gradientUnits="userSpaceOnUse">
<stop stop-color="#FFBE04"/>
<stop offset="1" stop-color="#FF7F00"/>
</linearGradient>
<linearGradient id="paint7_linear_13_2973" x1="12.3805" y1="45.5967" x2="29.4365" y2="45.5967" gradientUnits="userSpaceOnUse">
<stop stop-color="#FFBE04"/>
<stop offset="1" stop-color="#FF7F00"/>
</linearGradient>
<linearGradient id="paint8_linear_13_2973" x1="18.6455" y1="43.3886" x2="33.579" y2="43.3886" gradientUnits="userSpaceOnUse">
<stop stop-color="#FFBE04"/>
<stop offset="1" stop-color="#FF7F00"/>
</linearGradient>
<linearGradient id="paint9_linear_13_2973" x1="52.2997" y1="33.2505" x2="29.0928" y2="33.2505" gradientUnits="userSpaceOnUse">
<stop stop-color="#016737"/>
<stop offset="1" stop-color="#4BBC39"/>
</linearGradient>
<linearGradient id="paint10_linear_13_2973" x1="47.8088" y1="43.9586" x2="32.088" y2="43.9586" gradientUnits="userSpaceOnUse">
<stop stop-color="#016737"/>
<stop offset="1" stop-color="#4BBC39"/>
</linearGradient>
<linearGradient id="paint11_linear_13_2973" x1="52.47" y1="28.3283" x2="31.9037" y2="28.3283" gradientUnits="userSpaceOnUse">
<stop stop-color="#016737"/>
<stop offset="1" stop-color="#4BBC39"/>
</linearGradient>
</defs>
</svg>

<svg xmlns="http://www.w3.org/2000/svg" width="55" height="60" fill="none"><mask id="a" width="26" height="28" x="0" y="17" maskUnits="userSpaceOnUse" style="mask-type:luminance"><path fill="#fff" d="M17.616 19.396C13.88 17.597 5.167 15.108 1.74 22.208c-2.843 5.886-2.66 18.059 4.088 21.317 6.424 3.104 16.153-3.643 19.242-10.067 3.488-7.192-3.704-12.249-7.454-14.062Z"/></mask><g mask="url(#a)"><path fill="url(#b)" d="M28.558 15.107H-1.104V46.63h29.662V15.107Z"/></g><mask id="c" width="15" height="24" x="0" y="17" maskUnits="userSpaceOnUse" style="mask-type:luminance"><path fill="#fff" d="M8.825 17.49c-2.813.215-5.502 1.444-7.085 4.703-2.336 4.825-2.628 13.862 1.045 18.765 6.747-.261 12.157-5.825 12.157-12.633 0-4.595-2.46-8.607-6.117-10.835Z"/></mask><g mask="url(#c)"><path fill="url(#d)" d="M14.942 17.49H-.888v23.468h15.83V17.49Z"/></g><path fill="#E60000" fill-rule="evenodd" d="M10.838 31.137c-.446.154-.907.661-1.153 1.337-.138.37-.4 1.276.123 1.46.507.185.907-.66 1.045-1.03.246-.676.23-1.352-.015-1.767Zm4.027 1.614c-.43.154-.846.615-1.076 1.245-.123.338-.37 1.199.107 1.368.477.184.846-.63.984-.968.23-.615.2-1.245-.015-1.645Zm5.148-3.32c-.446.17-.907.661-1.153 1.337-.138.37-.4 1.276.123 1.46.508.185.907-.66 1.046-1.03.245-.675.215-1.352-.016-1.767Zm-5.24-1.951c-.446.169-.907.66-1.153 1.337-.139.368-.4 1.275.123 1.46.507.184.906-.661 1.045-1.03.246-.692.23-1.352-.016-1.767Zm-5.226-1.968c-.446.154-.907.661-1.153 1.337-.138.37-.4 1.276.123 1.46.507.185.907-.66 1.045-1.03.23-.675.216-1.352-.015-1.767ZM5.351 24.16c-.445.154-.906.66-1.152 1.337-.139.369-.4 1.276.123 1.46.507.184.906-.66 1.045-1.03.246-.676.23-1.352-.016-1.767Zm3.474-3.212c-.385.138-.769.568-.984 1.152-.123.323-.338 1.092.108 1.26.445.17.783-.568.891-.89.2-.585.184-1.169-.015-1.522Zm5.81 1.782c-.462.093-.985.508-1.338 1.122-.184.339-.584 1.184-.108 1.46.477.262 1-.507 1.184-.86.353-.615.43-1.276.261-1.722Zm4.579 2.214c-.369.138-.738.538-.938 1.076-.107.291-.322 1.03.093 1.183.415.154.737-.538.845-.845.215-.523.2-1.076 0-1.414Zm-14.14 10.25c-.414.154-.83.6-1.06 1.23-.123.338-.353 1.168.108 1.337.476.17.83-.614.953-.953.246-.614.215-1.23 0-1.613Zm3.889 2.967c-.415.154-.83.6-1.06 1.23-.123.337-.37 1.167.107 1.336.477.17.83-.614.953-.952.23-.615.215-1.23 0-1.614Zm-2.705-8.33c-.415.154-.83.6-1.06 1.23-.123.338-.37 1.167.107 1.337.477.169.83-.615.953-.953.23-.615.215-1.23 0-1.614Z" clip-rule="evenodd"/><mask id="e" width="28" height="25" x="13" y="0" maskUnits="userSpaceOnUse" style="mask-type:luminance"><path fill="#fff" d="M13.466 1.69c3.674 2.951 7.546 6.917 10.051 11.05 3.335 5.749 2.26 11.789 2.26 11.789 2.028-6.962 7.192-7.792 11.142-12.126 2.32-2.552 4.058-6.179 3.996-11.312-.722-.86-13.494-.937-15.292 9.96C24.086 7.914 21.612 3.857 17.816 0c-1.491.43-2.951.999-4.35 1.69Z"/></mask><g mask="url(#e)"><path fill="url(#f)" d="m27.222 38.284 26.019-26.02-26.02-26.02-26.019 26.02 26.02 26.02Z"/></g><mask id="g" width="16" height="24" x="25" y="1" maskUnits="userSpaceOnUse" style="mask-type:luminance"><path fill="#fff" d="M25.853 20.21c.246 2.536-.077 4.319-.077 4.319 2.03-6.962 7.193-7.792 11.143-12.126 2.182-2.413 3.857-5.779 3.98-10.466-.722 1.813-2.013 3.888-4.303 5.532-5.225 3.735-10.45 8.207-10.743 12.741Z"/></mask><g mask="url(#g)"><path fill="url(#h)" d="m33.338 32.09 18.858-18.858L33.338-5.624 14.48 13.233 33.338 32.09Z"/></g><mask id="i" width="17" height="18" x="8" y="6" maskUnits="userSpaceOnUse" style="mask-type:luminance"><path fill="#fff" d="M8.01 6.409s.215 8.314 7.885 10.789c4.272 1.721 7.284 3.765 8.79 5.917-.999-9.514-5.21-17.09-16.675-16.706Z"/></mask><g mask="url(#i)"><path fill="url(#j)" d="M24.685 6.024H8.01V23.13h16.675V6.024Z"/></g><mask id="k" width="17" height="18" x="8" y="6" maskUnits="userSpaceOnUse" style="mask-type:luminance"><path fill="#fff" d="M8.01 6.409s.031 1.091.43 2.582c0 0 13.31-.077 16.245 14.124-.999-9.514-5.21-17.09-16.675-16.706Z"/></mask><g mask="url(#k)"><path fill="url(#l)" d="M28.973 7.162 9.133 1.844 3.737 21.977l19.84 5.318 5.395-20.133Z"/></g><mask id="m" width="30" height="31" x="11" y="30" maskUnits="userSpaceOnUse" style="mask-type:luminance"><path fill="#fff" d="M25.746 30.922c8.023 0 14.539 6.501 14.539 14.54 0 8.022-6.501 14.538-14.54 14.538-8.022 0-14.538-6.5-14.538-14.539 0-8.038 6.501-14.539 14.539-14.539Z"/></mask><g mask="url(#m)"><path fill="url(#n)" d="M40.285 30.922H11.207V60h29.078V30.922Z"/></g><mask id="o" width="20" height="29" x="21" y="31" maskUnits="userSpaceOnUse" style="mask-type:luminance"><path fill="#fff" d="M28.59 31.199A14.532 14.532 0 0 1 40.27 45.46c0 8.024-6.503 14.54-14.54 14.54a14.74 14.74 0 0 1-4.533-.722c9.329.706 16.89-18.212 7.392-28.08Z"/></mask><g mask="url(#o)"><path fill="url(#p)" d="M40.27 31.199H21.197v28.785H40.27V31.2Z"/></g><mask id="q" width="16" height="25" x="11" y="31" maskUnits="userSpaceOnUse" style="mask-type:luminance"><path fill="#fff" d="M15.341 55.62a14.453 14.453 0 0 1-4.134-10.159c0-7.131 5.133-13.063 11.91-14.293a14.9 14.9 0 0 1 3.766 9.913c0 7.07-4.918 13.002-11.542 14.539Z"/></mask><g mask="url(#q)"><path fill="url(#r)" d="M26.883 31.152H11.207v24.452h15.676V31.152Z"/></g><path fill="#fff" fill-rule="evenodd" d="M25.162 57.51c-5.625-1.552-9.774-6.7-9.774-12.833a13.286 13.286 0 0 1 3.965-9.483c-2.475 1.553-4.365 3.966-5.21 6.84a11.89 11.89 0 0 0-.492 3.412c.015 6.485 5.118 11.772 11.511 12.064Z" clip-rule="evenodd"/><mask id="s" width="28" height="43" x="27" y="15" maskUnits="userSpaceOnUse" style="mask-type:luminance"><path fill="#fff" d="M51.642 45.553c-2.228 5.333-7.868 14.155-15.138 10.682-3.888-1.86-2.643-5.61-3.58-9.022-2.629-9.605-7.762-13.202-5.119-22.27 5.318-18.15 36.132-8.76 23.837 20.61Z"/></mask><g mask="url(#s)"><path fill="url(#t)" d="M63.938 6.793H25.162v52.915h38.776V6.793Z"/></g><mask id="u" width="20" height="30" x="35" y="28" maskUnits="userSpaceOnUse" style="mask-type:luminance"><path fill="#fff" d="M51.642 45.553c-2.228 5.333-7.868 14.155-15.138 10.681-.23-.107-.43-.23-.63-.353 5.948.108 20.133-13.31 18.181-27.68.984 4.611.492 10.42-2.413 17.352Z"/></mask><g mask="url(#u)"><path fill="url(#v)" d="M55.992 28.202H35.859v31.506h20.133V28.202Z"/></g><mask id="w" width="18" height="27" x="27" y="15" maskUnits="userSpaceOnUse" style="mask-type:luminance"><path fill="#fff" d="M31.033 41.865c-2.552-6.01-5.333-9.76-3.228-16.937 2.137-7.3 8.407-10.143 14.34-9.006 1.306 2.505 2.028 5.364 2.028 8.391.015 8.315-5.533 15.338-13.14 17.552Z"/></mask><g mask="url(#w)"><path fill="url(#x)" d="M44.189 14.785H25.715v27.08H44.19v-27.08Z"/></g><path fill="#fff" fill-rule="evenodd" d="M35.397 43.955s-6.055-7.469-5.486-15.63c.4-5.656 4.933-6.27 3.073.354-.922 3.273.031 8.499 2.413 15.276Z" clip-rule="evenodd"/><defs><linearGradient id="d" x1="21.753" x2="2.156" y1="29.232" y2="29.232" gradientUnits="userSpaceOnUse"><stop stop-color="red"/><stop offset="1" stop-color="#F38288"/></linearGradient><linearGradient id="n" x1="12.543" x2="33.779" y1="45.456" y2="45.456" gradientUnits="userSpaceOnUse"><stop stop-color="#FFBE04"/><stop offset="1" stop-color="#FF7F00"/></linearGradient><linearGradient id="f" x1="25.54" x2="41.947" y1="13.95" y2="-2.457" gradientUnits="userSpaceOnUse"><stop stop-color="#4BBC39"/><stop offset="1" stop-color="#BEDE19"/></linearGradient><linearGradient id="h" x1="27.319" x2="43.892" y1="19.258" y2="2.685" gradientUnits="userSpaceOnUse"><stop stop-color="#3AA34E"/><stop offset="1" stop-color="#BEDE19"/></linearGradient><linearGradient id="j" x1="20.371" x2="3.553" y1="14.571" y2="14.571" gradientUnits="userSpaceOnUse"><stop stop-color="#4BBC39"/><stop offset="1" stop-color="#BEDE19"/></linearGradient><linearGradient id="l" x1="24.261" x2="4.311" y1="16.69" y2="11.344" gradientUnits="userSpaceOnUse"><stop stop-color="#3AA34E"/><stop offset="1" stop-color="#BEDE19"/></linearGradient><linearGradient id="b" x1="21.692" x2="-2.983" y1="30.871" y2="30.871" gradientUnits="userSpaceOnUse"><stop stop-color="red"/><stop offset="1" stop-color="#F38288"/></linearGradient><linearGradient id="p" x1="12.38" x2="29.436" y1="45.597" y2="45.597" gradientUnits="userSpaceOnUse"><stop stop-color="#FFBE04"/><stop offset="1" stop-color="#FF7F00"/></linearGradient><linearGradient id="r" x1="18.645" x2="33.579" y1="43.389" y2="43.389" gradientUnits="userSpaceOnUse"><stop stop-color="#FFBE04"/><stop offset="1" stop-color="#FF7F00"/></linearGradient><linearGradient id="t" x1="52.3" x2="29.093" y1="33.251" y2="33.251" gradientUnits="userSpaceOnUse"><stop stop-color="#016737"/><stop offset="1" stop-color="#4BBC39"/></linearGradient><linearGradient id="v" x1="47.809" x2="32.088" y1="43.959" y2="43.959" gradientUnits="userSpaceOnUse"><stop stop-color="#016737"/><stop offset="1" stop-color="#4BBC39"/></linearGradient><linearGradient id="x" x1="52.47" x2="31.904" y1="28.328" y2="28.328" gradientUnits="userSpaceOnUse"><stop stop-color="#016737"/><stop offset="1" stop-color="#4BBC39"/></linearGradient></defs></svg>
